X: 66
T:Fondly Yours
C:Michael Wiggins
M:6/8
L:1/8
K:D
A|"D"f2f "Bm"fed|"Em"cBA "A7"A2A|"D"f2f "Bm"fed|"Em"ge2-"A7"e2A|
"D"f2f "Bm"fed|"G"dcB "D"AFA|"G"Bcd "A7"cde|"D".fd2-d2:|
|:d/c/|"Bm"dBA "E7"^GBd|"A"ecB "F#m"Ace|"Bm"fdB "E7"^Ged|"A"ae2-e2e|
a2ea2e|"A7"aec Ace|"D"fdB "E7"^Ged|"A"cA2-A2:|
%%text
%%text and/or any other tunes of your choice
